.local/share/icons/Gruvbox-Plus-Dark/panel/16/dropboxstatus-idle.svg

<svg xmlns="http://www.w3.org/2000/svg" width="16" height="16" version="1.1">
 <defs>
  <style id="current-color-scheme" type="text/css">
   .ColorScheme-Text { color:#ebdbb2; } .ColorScheme-Highlight { color:#458588; }
  </style>
 </defs>
 <path style="fill:currentColor" class="ColorScheme-Text" d="M 4.4472656 1 L 4.4492188 1.0039062 L 0.0078125 3.5078125 L 4 5.9863281 L 0 9.0039062 L 4.4492188 11.5 L 8 9.0097656 L 4 6 L 8 3.5078125 L 12 6.0136719 L 10.263672 7.3144531 A 5 5 0 0 1 12 7 A 5 5 0 0 1 13.792969 7.3378906 L 12 5.9960938 L 15.990234 3.5058594 L 11.550781 1 L 8 3.4921875 L 4.4472656 1 z M 12 8 A 4 4 0 0 0 8 12 A 4 4 0 0 0 12 16 A 4 4 0 0 0 16 12 A 4 4 0 0 0 12 8 z M 15.970703 8.9667969 A 5 5 0 0 1 15.990234 8.9960938 L 16 8.9902344 L 15.970703 8.9667969 z M 14.199219 9.2617188 A 3.5 3.5 0 0 1 14.632812 9.6835938 A 3.5 3.5 0 0 1 14.634766 9.6855469 A 3.5 3.5 0 0 1 15.347656 10.980469 A 3.5 3.5 0 0 1 15.453125 11.417969 A 3.5 3.5 0 0 1 15.494141 11.878906 C 15.489141 11.725906 15.476172 11.572922 15.451172 11.419922 C 15.427172 11.269922 15.390702 11.123422 15.345703 10.982422 C 15.300703 10.840422 15.248503 10.702406 15.1875 10.566406 L 12.007812 14.201172 L 11.662109 14.607422 L 11.271484 14.232422 L 9.7695312 12.730469 C 9.5805312 12.542469 9.5805312 12.198766 9.7695312 12.009766 C 9.9575313 11.821766 10.300281 11.821766 10.488281 12.009766 L 11.615234 13.136719 L 14.632812 9.6835938 C 14.498126 9.5289517 14.353809 9.3884847 14.199219 9.2617188 z M 7.2128906 10.5625 L 4.4492188 12.501953 L 3.5605469 12.003906 L 3.5605469 12.375 L 8 15 L 8.0058594 14.998047 A 5 5 0 0 1 7 12 A 5 5 0 0 1 7.2128906 10.5625 z"/>
</svg>

<svg width="16" height="16" version="1.1" xmlns="http://www.w3.org/2000/svg">
  <defs>
    <style id="current-color-scheme" type="text/css">.ColorScheme-Text { color:#ebdbb2; } .ColorScheme-Highlight { color:#458588; } .ColorScheme-NeutralText { color:#fe8019; } .ColorScheme-PositiveText { color:#689d6a; } .ColorScheme-NegativeText { color:#fb4934; }</style>
  </defs>
  <path class="ColorScheme-Text" d="m4.447 1 0.0019 0.0039-4.441 2.504 3.992 2.478-4 3.018 4.449 2.496 3.551-2.49-4-3.01 4-2.492 4 2.506-1.736 1.301c0.555-0.207 1.143-0.3134 1.736-0.3145 0.613 0.0017 1.221 0.1162 1.793 0.3379l-1.793-1.342 3.99-2.49-4.439-2.506-3.551 2.492zm2.766 9.564-2.764 1.939-0.8887-0.498v0.371l4.44 2.625 0.0059-2e-3c-0.6508-0.864-1.004-1.916-1.006-2.998 6e-4 -0.487 0.0723-0.971 0.2129-1.437zm4.787-2.564c-2.209 0-4 1.791-4 4s1.791 4 4 4 4-1.791 4-4-1.791-4-4-4zm2.306 1.801c0.2269 0.1736 0.2691 0.4957 0.0957 0.7227l-2.889 3.781-1.664-1.666c-0.202-0.2021-0.202-0.5266 0-0.7285 0.2021-0.202 0.5266-0.202 0.7285 0l0.834 0.834 2.172-2.846c0.1686-0.2204 0.4928-0.2732 0.7227-0.09766z" fill="currentColor"/>
</svg>
